svg/temple_hindu_outline.svg

<svg xmlns="http://www.w3.org/2000/svg" viewBox="0 0 24 24"><path d="M20 11v2h-2L15 3V1h-2v2h-2V1H9v2.1L6 13H4v-2H2v11h9v-5h2v5h9V11zm-4.7 0H8.7l.6-2h5.4zm-1.2-4H9.9l.6-2h3zM20 20h-5v-5H9v5H4v-5h3.5l.6-2h7.8l.6 2H20z"/></svg>

<svg xmlns="http://www.w3.org/2000/svg" id="mdi-temple-hindu-outline" viewBox="0 0 24 24"><path d="M20 11V13H18L15 3V1H13V3H11V1H9V3.1L6 13H4V11H2V22H11V17H13V22H22V11H20M15.3 11H8.7L9.3 9H14.7L15.3 11M14.1 7H9.9L10.5 5H13.5L14.1 7M20 20H15V15H9V20H4V15H7.5L8.1 13H15.9L16.5 15H20V20Z" /></svg>
